X:219
T:Royal Irish Quadrilles No. 4. Le4.219, The
T:Irish Washerwoman,aka
M:6/8
L:1/8
Q:3/8=90
B:L.Leadley MS#4 c1850
Z:Village Music Project 2016 Steve Mansfield
K:D
a/g/ | fdd Add | fdf agf | gee Bee | geg bag |
fdd Add | fdf agf | geg eag | fdd d2 |
|: A | d6 & dcd DFA | d6 & dcd fed | cBc CEA | c^Bc edc |
B>cd Acd | GFG F2F | GFG EAG | FDD D2 !D.C.! :|]

